X:501
T:Jackson's Escape
N:For the dance "Twelve Reel"
C:Pat Shaw Collection Book 3 No 56.
S:Colin Hume's website,  colinhume.com  - chords can also be printed below the stave.
Q:1/2=120
M:2/2
R:Reel
L:1/4
K:D
P:A
|: (3(A/B/c/) | "D"d2 "A"ed/e/ | "D"fa2f | "Em"g3/f/ ed | "A7"e/d/c/B/ AB/c/ |\
"D"d2 "A"ed/e/ | "D"fa2f | "Em"g/f/e/d/ "A7"cA | "D"d3 :|
P:B
c/d/ | "A"e/d/c/B/ A B/c/ | "D"dAFD | "Em"G/A/B/c/ "D"df | "A"e3 c/d/ |\
"A7"e/d/c/B/ A B/c/ | "D"dfaf | "Em"g/f/e/d/ "A"c/d/e/c/ | "D"d3 c/d/ |
"A"e/d/c/B/ AB/c/ | "D"dA FD | "Em"G/A/B/c/ "D"df | "A"e3 (3(A/B/c/) |\
"D"d2 "A"ed/e/ | "D"fa2f | "Em"g/f/e/d/ "A7"cA | "D"d3 |]

